public/images/icons/Javascript.svg

<svg width="197" height="197" fill="none" xmlns="http://www.w3.org/2000/svg"><path d="M184.15.796H13.71C6.652.796.929 6.52.929 13.58v170.439c0 7.06 5.723 12.783 12.783 12.783H184.15c7.06 0 12.783-5.723 12.783-12.783V13.579c0-7.06-5.723-12.783-12.783-12.783Z" fill="#F7E025"/><path d="M101.873 106.469h12.25v47.936c-.022 4.393-.954 8.177-2.796 11.351-1.842 3.151-4.416 5.582-7.723 7.29-3.285 1.687-7.113 2.53-11.484 2.53-3.995 0-7.59-.71-10.786-2.13-3.173-1.443-5.692-3.573-7.557-6.391-1.864-2.82-2.796-6.325-2.796-10.52h12.284c.022 1.842.421 3.428 1.198 4.76a7.984 7.984 0 0 0 3.296 3.063c1.398.71 3.007 1.065 4.827 1.065 1.974 0 3.65-.41 5.026-1.232 1.376-.843 2.419-2.086 3.129-3.728.732-1.642 1.11-3.662 1.132-6.058v-47.936Zm62.699 18.741c-.31-2.907-1.62-5.171-3.927-6.791-2.286-1.62-5.26-2.43-8.922-2.43-2.574 0-4.782.389-6.624 1.165-1.843.777-3.251 1.831-4.228 3.163-.976 1.331-1.476 2.851-1.498 4.561 0 1.419.322 2.652.966 3.694.665 1.043 1.564 1.931 2.696 2.663a18.934 18.934 0 0 0 3.762 1.798c1.376.488 2.762.899 4.161 1.232l6.391 1.597c2.575.6 5.049 1.41 7.424 2.431 2.396 1.021 4.538 2.308 6.424 3.861a17.14 17.14 0 0 1 4.527 5.626c1.11 2.197 1.665 4.772 1.665 7.723 0 3.995-1.021 7.512-3.062 10.553-2.042 3.018-4.994 5.381-8.855 7.09-3.84 1.686-8.489 2.53-13.948 2.53-5.304 0-9.91-.821-13.815-2.464-3.884-1.642-6.924-4.038-9.121-7.19-2.175-3.151-3.352-6.99-3.529-11.518h12.15c.178 2.375.91 4.35 2.197 5.926 1.288 1.575 2.963 2.751 5.027 3.528 2.086.777 4.416 1.165 6.991 1.165 2.685 0 5.037-.399 7.057-1.198 2.042-.821 3.64-1.953 4.794-3.396 1.153-1.464 1.741-3.172 1.764-5.126-.023-1.775-.544-3.24-1.565-4.394-1.021-1.176-2.452-2.152-4.294-2.929-1.82-.799-3.95-1.51-6.392-2.131l-7.756-1.998c-5.615-1.441-10.053-3.627-13.315-6.557-3.24-2.951-4.86-6.869-4.86-11.751 0-4.017 1.087-7.534 3.262-10.553 2.197-3.017 5.181-5.359 8.954-7.024 3.774-1.686 8.046-2.53 12.817-2.53 4.838 0 9.077.844 12.716 2.53 3.662 1.665 6.536 3.984 8.622 6.958 2.086 2.952 3.163 6.347 3.229 10.186h-11.885Z" fill="#1C1C1C"/></svg>

<svg width="197" height="197" viewBox="0 0 197 197" fill="none" xmlns="http://www.w3.org/2000/svg">
<path d="M184.15 0.796387H13.7109C6.65109 0.796387 0.927979 6.5195 0.927979 13.5793V184.018C0.927979 191.078 6.65109 196.801 13.7109 196.801H184.15C191.21 196.801 196.933 191.078 196.933 184.018V13.5793C196.933 6.5195 191.21 0.796387 184.15 0.796387Z" fill="#F7E025"/>
<path d="M101.873 106.469H114.123V154.405C114.101 158.798 113.169 162.582 111.327 165.756C109.485 168.907 106.911 171.338 103.604 173.046C100.319 174.733 96.4914 175.576 92.1197 175.576C88.1246 175.576 84.53 174.866 81.3343 173.446C78.1607 172.003 75.6416 169.873 73.777 167.055C71.9133 164.235 70.981 160.73 70.981 156.535H83.2645C83.2867 158.377 83.6863 159.963 84.4627 161.295C85.262 162.627 86.3605 163.647 87.759 164.358C89.1566 165.068 90.7655 165.423 92.5858 165.423C94.5603 165.423 96.2366 165.013 97.6121 164.191C98.9884 163.348 100.031 162.105 100.741 160.463C101.473 158.821 101.851 156.801 101.873 154.405V106.469ZM164.572 125.21C164.262 122.303 162.952 120.039 160.645 118.419C158.359 116.799 155.385 115.989 151.723 115.989C149.149 115.989 146.941 116.378 145.099 117.154C143.256 117.931 141.848 118.985 140.871 120.317C139.895 121.648 139.395 123.168 139.373 124.878C139.373 126.297 139.695 127.53 140.339 128.572C141.004 129.615 141.903 130.503 143.035 131.235C144.167 131.946 145.42 132.545 146.797 133.033C148.173 133.521 149.559 133.932 150.958 134.265L157.349 135.862C159.924 136.462 162.398 137.272 164.773 138.293C167.169 139.314 169.311 140.601 171.197 142.154C173.105 143.708 174.615 145.583 175.724 147.78C176.834 149.977 177.389 152.552 177.389 155.503C177.389 159.498 176.368 163.015 174.327 166.056C172.285 169.074 169.333 171.437 165.472 173.146C161.632 174.832 156.983 175.676 151.524 175.676C146.22 175.676 141.614 174.855 137.709 173.212C133.825 171.57 130.785 169.174 128.588 166.022C126.413 162.871 125.236 159.032 125.059 154.504H137.209C137.387 156.879 138.119 158.854 139.406 160.43C140.694 162.005 142.369 163.181 144.433 163.958C146.519 164.735 148.849 165.123 151.424 165.123C154.109 165.123 156.461 164.724 158.481 163.925C160.523 163.104 162.121 161.972 163.275 160.529C164.428 159.065 165.016 157.357 165.039 155.403C165.016 153.628 164.495 152.163 163.474 151.009C162.453 149.833 161.022 148.857 159.18 148.08C157.36 147.281 155.23 146.57 152.788 145.949L145.032 143.951C139.417 142.51 134.979 140.324 131.717 137.394C128.477 134.443 126.857 130.525 126.857 125.643C126.857 121.626 127.944 118.109 130.119 115.09C132.316 112.073 135.3 109.731 139.073 108.066C142.847 106.38 147.119 105.536 151.89 105.536C156.728 105.536 160.967 106.38 164.606 108.066C168.268 109.731 171.142 112.05 173.228 115.024C175.314 117.976 176.391 121.371 176.457 125.21H164.572Z" fill="#1C1C1C"/>
</svg>
